src/assets/images/hero_decorator_mobile.svg

<svg width="530" height="1157" viewBox="0 0 530 1157" fill="none" xmlns="http://www.w3.org/2000/svg">
<path opacity="0.2" d="M543 190.5C113.383 90.6118 133.5 46.942 -1187 46.942V0H543V190.5Z" fill="#223E99"/>
<path opacity="0.4" d="M542 165.5C112.383 65.6118 132.5 46.942 -1188 46.942V0H542V165.5Z" fill="#223E99"/>
<path d="M544 134C113.886 42.8402 -115.475 42.8401 -1188 42.8401V0H544V134Z" fill="#223E99"/>
<rect opacity="0.35" x="-113" width="756" height="1108" fill="#223E99"/>
<path opacity="0.2" d="M1.00002 966C430.617 1065.89 410.5 1109.56 1731 1109.56L1731 1156.5L1 1156.5L1.00002 966Z" fill="white"/>
<path opacity="0.4" d="M2.00001 991C431.617 1090.89 411.5 1109.56 1732 1109.56L1732 1156.5L2 1156.5L2.00001 991Z" fill="white"/>
<path d="M1.17147e-05 1022.5C430.114 1113.66 659.475 1113.66 1732 1113.66L1732 1156.5L0 1156.5L1.17147e-05 1022.5Z" fill="white"/>
</svg>

<svg width="530" height="1157" fill="none" xmlns="http://www.w3.org/2000/svg"><path opacity=".2" d="M543 190.5C113.383 90.612 133.5 46.942-1187 46.942V0H543v190.5Z" fill="#223E99"/><path opacity=".4" d="M542 165.5C112.383 65.612 132.5 46.942-1188 46.942V0H542v165.5Z" fill="#223E99"/><path d="M544 134C113.886 42.84-115.475 42.84-1188 42.84V0H544v134Z" fill="#223E99"/><path opacity=".2" d="M1 966c429.617 99.89 409.5 143.56 1730 143.56v46.94H1V966Z" fill="#fff"/><path opacity=".4" d="M2 991c429.617 99.89 409.5 118.56 1730 118.56v46.94H2V991Z" fill="#fff"/><path d="M0 1022.5c430.114 91.16 659.475 91.16 1732 91.16v42.84H0v-134Z" fill="#fff"/></svg>
